X:43
T:Hinlock of Hinlock
S:John Moore's Book 2
Z:Transcribed by Steve Mansfield 04/2021
%%VWML: Moore1-4494-p33-0
F:http://www.vwml.org/record/Moore2/4494/p33
M:6/8
L:1/8
K:D
d | f>ed A<FA | BGB AFA | fed AFA | B>dc d2 :|
|: a |f2a e2a | d>ed cBA | f2a e2a | ab^g a2a | 
b2b a2a | g>ag f>ed | f>ed AFA | B>dc d2 :|

